X: 34167
T: Reel Men's Rant
R: reel
M: 4/4
K: Dmajor
|:DAdB AFFA|DAdA BGGA|DAdA FAdf|1 efdf eAAF:|2 efdA Bcde||
|:fafd edfd|eaed cdec|dfed eAAF|1 GBAF DFAd:|2 GBAF DEFG||
|:AdFA BGGB|AdFA GEEG|1 FdAf dagf|gefd eAAF:|2 FdAf dafA|GAFA EAce||
|:defd eaae|fgaf gbag|aeea fddf|1 eAAF GABc:|2 efge dcBA||

